!!!OTL: MARTIN WAR EIN FROMMER MANN
!!!ARE: Europa, Mitteleuropa, Deutschland
!!!SCT: E1270A
!!!YEM: Copyright 1995, estate of Helmut Schaffrath.
**kern
*ICvox
*Ivox
*M4/4
*k[b-]
*F:
=1
{2cc
2a
=2
2cc
2a}
=3
{4f
4g
4a
4b-
=4
4cc
4cc
2a}
=5
{4f
4g
4a
4b-
=6
4cc
4cc
2a}
=7
{4f
4g
4a
4b-
=8
4cc
4cc
2a}
=9
{4dd
4cc
4b-
4a
=10
4g
4g
2f}
==
!!!AGN: Ansinge -, Kinder -, Brauchtums - Lied, Kirchen - Fest, Sankt Martin
!!!ONB: ESAC (Essen Associative Code) Database: ERK3
!!!AMT: simple quadruple
!!!AIN: vox
!!!EED: Helmut Schaffrath
!!!EEV: 1.0
*-
